X: 1
T: Bus Stop Reel + harmony
C: Anita Anderson 1987
%D:1987
N: RJ R-139
Z: Transcribed to abc by Mary Lou Knack
R: reel
M: C|
K: Am
|:\
"Am"A2eA dAc2 | ABcA "G"BAGB | "Am"A2eA dAc2 | "C"cde^f "G"gedB |\
"Am"A2eA dAc2 |
ABcA "G"BAG2 | "F"FGAc "G"BAGB | "Am"cABG A4 ::\
"Am"ea-ag edcB | ABcd e4 |
ea-ag "C"edc2 | "D"de^fd "E"e4 |\
"Am"ea-ag edcB | ABcd e2dc | "G"BAGF EFGB | "Am"cABG A4 :|
%
P: Alternative to A, to be played occasionally in place of the usual A's:
|: A2e2 d2c2 | A3B- B2 z2 | A2e2 d2c2 | e3^f- f2z2 |\
   A2e2 d2c2 | A4 G4 | F4 G4 |1 A4 z4 :|2 A2B2 c2d2 |] 
